X: 173
T: The dandy bonnet
C: anon.
O: Ireland
B: Francis O'Neill: "The Dance Music of Ireland" (1907) no. 173
R: Double jig
Z: Transcribed by Frank Nordberg - http://www.musicaviva.com
F: http://www.musicaviva.com/abc/tunes/ireland/oneill-1001/oneill-1001-017
3.abc
M: 6/8
L: 1/8
K: A
e|cAA A2E|Ace f2d|cAA Ace|fdf e2 (f/g/)|afa gec|fdf ecA|cAF EGG|ABA A2:|
|:e|cAF ECE|AEA ecA|dBG GBc|dBf fed|cAF ECE|AEA def|(e<a)c (B<d)G|ABA A2:
|
W:
W:
W: From Musica Viva - http://www.musicaviva.com
W: the Internet center for free sheet music downloads.


